X:1
T:Title
%%score ( 1 2 ) { 3 | 4 }
L:1/8
Q:1/4=100
M:6/8
K:A
V:1 treble nm="Grand Piano, Soprano"
V:2 treble 
V:3 bass nm="Choir Pad, Bass"
V:4 bass 
V:1
 [CE] [Ec]2 [DB] [CA]2 | [EG][EG][DF] [DF] [DF]2 | [EF] [Fd]2 [Fc] [FB]2 | [FA]GA [DB] [CE]2 | %4
w: By~Anonymous,~1874 * * *||||
 [CE] [Ec]2 [DB] [CA]2 | [EG][EG][DF] [DF] [Fd]2 | [Ed]dc [EB] [Ee]2 | [CA] [Ec]2 [DB] [CA]2 | %8
w: ||||
 [CA] [EB]2 [EB] [EB]2 | [^Ec] [FA]2 [FA] [FA]2 | [GB] [Ac]2 [Ac]cd | [Ae] [GB]2 [GB] [GB]2 | %12
w: ||||
 [Ec] [Fd]2 [Fd] [Fd]2 | [EB] [Ec]2 [Ec] [Ec]2 | [EA] [FB]2 [Ec] [Fd]2 | [DF] [B,E]2 [DB] [CA]2- | %16
w: ||||
 [CA]6 |] %17
w: |
V:2
 x6 | x6 | x6 | z E2 z3 | x6 | x6 | z E2 z3 | x6 | x6 | x6 | z3 z E2 | x6 | x6 | x6 | x6 | x6 | %16
 x6 |] %17
V:3
 A, A,2 E, E,2 | A, A,2 A, A,2 | ^A, B,2 A, B,2 | B,B,A, G, A,2 | A, A,2 E, E,2 | A, A,2 A, A,2 | %6
 G,B,A, G, A,2 | A, A,2 G, A,2 | A, G,2 G, G,2 | C C2 C C2 | E E2 E[K:bass]A,G, | A, B,2 B, B,2 | %12
 A, A,2 A, A,2 | G, A,2 A, A,2 | A, B,2 ^A, B,2 | ^A, G,2 G, =A,2- | A,6 |] %17
V:4
 A,, A,,2 A,, A,,2 | C, D,2 D, D,2 | C, B,,2 C, D,2 | ^D, E,2 .E,3 | A,, A,,2 A,, A,,2 | %5
 E, D,2 D, D,2 | E, E,2 D, C,2 | F, E,2 E, A,,2 | A,, E,2 E, E,2 | C, F,2 F, F,2 | %10
 E, A,2 A,,A,,B,, | C, E,2 E, E,2 | z D,2 D, D,2 | .E,3 z3 | C, D,2 C, B,,2 | D, E,2 E, A,,2- | %16
 A,,6 |] %17

